X:771
T:Reel 771
L:1/8
M: 4/4
K: D Major
affdedfd|edefg2ag|fdfdedBd|gbagfdd2|(3dedfdedfd|edefg2fe|dfafgfed|(3cBAefg2fe|d4e2fg|afgefdde|fefgafde|fdedc2d2|.abc